X: 141
T: kost ar c'hoat
C: trad breton
M: 4/4
L: 1/8
R: kost ar c'hoat
K: Dmaj
|:d>f g>f f>d f2|d/d/d =c>d f>d c>d|
|d>f g>f f>d f2|d/d/d =c>e d2 d2:|
|:d/e/d =c>A d>d e2|d/e/d =c>A d2 d2:|
